;FLAVOR:UltiGCode
;TIME:40834
;MATERIAL:41949
;MATERIAL2:0
;NOZZLE_DIAMETER:0.400000
;NOZZLE_DIAMETER2:0.400000

;Layer count: 298
;LAYER:0
M107
G0 F9000 X41.800 Y23.800 Z0.300
;TYPE:SKIRT
G1 F1200 X188.200 Y23.800 E17.56800
G1 X188.200 Y70.200 E23.13600
G1 X138.200 Y70.200 E29.13600
G1 X138.200 Y154.800 E39.28800
G1 X168.200 Y154.800 E42.88800
G1 X168.200 Y201.200 E48.45600
G1 X61.800 Y201.200 E61.22400
G1 X61.800 Y154.800 E66.79200
G1 X91.800 Y154.800 E70.39200
G1 X91.800 Y70.200 E80.54400
G1 X41.800 Y70.200 E86.54400
G1 X41.800 Y23.800 E92.11200
G10
G0 F9000 X45.600 Y27.600
;TYPE:WALL-INNER
G11
G1 F1200 X184.400 Y27.600 E108.76800
G1 X184.400 Y66.400 E113.42400
G1 X134.400 Y66.400 E119.42400
G1 X134.400 Y158.600 E130.48800
G1 X164.400 Y158.600 E134.08800
G1 X164.400 Y197.400 E138.74400
G1 X65.600 Y197.400 E150.60000
G1 X65.600 Y158.600 E155.25600
G1 X95.600 Y158.600 E158.85600
G1 X95.600 Y66.400 E169.92000
G1 X45.600 Y66.400 E175.92000
G1 X45.600 Y27.600 E180.57600
G0 F9000 X45.200 Y27.200
;TYPE:WALL-OUTER
G1 F1200 X184.800 Y27.200 E197.32800
G1 X184.800 Y66.800 E202.08000
G1 X134.800 Y66.800 E208.08000
G1 X134.800 Y158.200 E219.04800
G1 X164.800 Y158.200 E222.64800
G1 X164.800 Y197.800 E227.40000
G1 X65.200 Y197.800 E239.35200
G1 X65.200 Y158.200 E244.10400
G1 X95.200 Y158.200 E247.70400
G1 X95.200 Y66.800 E258.67200
G1 X45.200 Y66.800 E264.67200
G1 X45.200 Y27.200 E269.42400
G0 F9000 X45.739 Y27.920
;TYPE:SKIN
G1 F900 X84.078 Y66.259 E275.93034
G0 F9000 X83.512 Y66.259
G1 F900 X45.739 Y28.485 E282.34072
G0 F9000 X45.739 Y29.051
G1 F900 X82.947 Y66.259 E288.65513
G0 F9000 X82.381 Y66.259
G1 F900 X45.739 Y29.617 E294.87348
G0 F9000 X45.739 Y30.182
G1 F900 X81.815 Y66.259 E300.99587
G0 F9000 X81.250 Y66.259
G1 F900 X45.739 Y30.748 E307.02228
G0 F9000 X45.739 Y31.314
G1 F900 X80.684 Y66.259 E312.95264
G0 F9000 X80.118 Y66.259
G1 F900 X45.739 Y31.879 E318.78704
G0 F9000 X45.739 Y32.445
G1 F900 X79.553 Y66.259 E324.52547
G0 F9000 X78.987 Y66.259
G1 F900 X45.739 Y33.011 E330.16784
G0 F9000 X45.739 Y33.576
G1 F900 X78.421 Y66.259 E335.71424
G0 F9000 X77.855 Y66.259
G1 F900 X45.739 Y34.142 E341.16459
G0 F9000 X45.739 Y34.708
G1 F900 X77.290 Y66.259 E346.51898
G0 F9000 X76.724 Y66.259
G1 F900 X45.739 Y35.274 E351.77730
G0 F9000 X45.739 Y35.839
G1 F900 X76.158 Y66.259 E356.93966
G0 F9000 X75.593 Y66.259
G1 F900 X45.739 Y36.405 E362.00606
G0 F9000 X45.739 Y36.971
G1 F900 X75.027 Y66.259 E366.97639
G0 F9000 X74.461 Y66.259
G1 F900 X45.739 Y37.536 E371.85076
G0 F9000 X45.739 Y38.102
G1 F900 X73.896 Y66.259 E376.62917
G0 F9000 X73.330 Y66.259
G1 F900 X45.739 Y38.668 E381.31151
G0 F9000 X45.739 Y39.233
G1 F900 X72.764 Y66.259 E385.89789
G0 F9000 X72.199 Y66.259
G1 F900 X45.739 Y39.799 E390.38830
G0 F9000 X46.125 Y27.740
G1 F900 X84.644 Y66.259 E396.92520
G0 F9000 X85.209 Y66.259
G1 F900 X46.690 Y27.740 E403.46209
G0 F9000 X47.256 Y27.740
G1 F900 X85.775 Y66.259 E409.99898
G0 F9000 X86.341 Y66.259
G1 F900 X47.822 Y27.740 E416.53587
G0 F9000 X48.388 Y27.740
G1 F900 X86.906 Y66.259 E423.07267
G0 F9000 X87.472 Y66.259
G1 F900 X48.953 Y27.740 E429.60957
G0 F9000 X49.519 Y27.740
G1 F900 X88.038 Y66.259 E436.14646
G0 F9000 X88.604 Y66.259
G1 F900 X50.085 Y27.740 E442.68335
G0 F9000 X50.650 Y27.740
G1 F900 X89.169 Y66.259 E449.22024
G0 F9000 X89.735 Y66.259
G1 F900 X51.216 Y27.740 E455.75713
G0 F9000 X51.782 Y27.740
G1 F900 X90.301 Y66.259 E462.29402
G0 F9000 X90.866 Y66.259
G1 F900 X52.347 Y27.740 E468.83091
G0 F9000 X52.913 Y27.740
G1 F900 X91.432 Y66.259 E475.36780
G0 F9000 X91.998 Y66.259
G1 F900 X53.479 Y27.740 E481.90469
G0 F9000 X54.044 Y27.740
G1 F900 X92.563 Y66.259 E488.44159
G0 F9000 X93.129 Y66.259
G1 F900 X54.610 Y27.740 E494.97848
G0 F9000 X55.176 Y27.740
G1 F900 X93.695 Y66.259 E501.51537
G0 F9000 X94.260 Y66.259
G1 F900 X55.741 Y27.740 E508.05226
G0 F9000 X56.307 Y27.740
G1 F900 X94.826 Y66.259 E514.58915
G0 F9000 X95.392 Y66.259
G1 F900 X56.873 Y27.740 E521.12604
G0 F9000 X57.438 Y27.740
G1 F900 X134.260 Y104.562 E534.16317
G0 F9000 X134.260 Y105.127
G1 F900 X95.739 Y66.606 E540.70040
G0 F9000 X95.739 Y67.172
G1 F900 X134.260 Y105.693 E547.23763
G0 F9000 X134.260 Y106.259
G1 F900 X95.739 Y67.738 E553.77486
G0 F9000 X95.739 Y68.303
G1 F900 X134.260 Y106.824 E560.31209
G0 F9000 X134.260 Y107.390
G1 F900 X95.739 Y68.869 E566.84932
G0 F9000 X95.739 Y69.435
G1 F900 X134.260 Y107.956 E573.38655
G0 F9000 X134.260 Y108.521
G1 F900 X95.739 Y70.000 E579.92378
G0 F9000 X95.739 Y70.566
G1 F900 X134.260 Y109.087 E586.46101
G0 F9000 X134.260 Y109.653
G1 F900 X95.739 Y71.132 E592.99824
G0 F9000 X95.739 Y71.697
G1 F900 X134.260 Y110.218 E599.53547
G0 F9000 X134.260 Y110.784
G1 F900 X95.739 Y72.263 E606.07270
G0 F9000 X95.739 Y72.829
G1 F900 X134.260 Y111.350 E612.60993
G0 F9000 X134.260 Y111.915
G1 F900 X95.739 Y73.394 E619.14716
G0 F9000 X95.739 Y73.960
G1 F900 X134.260 Y112.481 E625.68439
G0 F9000 X134.260 Y113.047
G1 F900 X95.739 Y74.526 E632.22162
G0 F9000 X95.739 Y75.091
G1 F900 X134.260 Y113.612 E638.75885
G0 F9000 X134.260 Y114.178
G1 F900 X95.739 Y75.657 E645.29608
G0 F9000 X95.739 Y76.223
G1 F900 X134.260 Y114.744 E651.83332
G0 F9000 X134.260 Y115.310
G1 F900 X95.739 Y76.788 E658.37063
G0 F9000 X95.739 Y77.354
G1 F900 X134.260 Y115.875 E664.90786
G0 F9000 X134.260 Y116.441
G1 F900 X95.739 Y77.920 E671.44509
G0 F9000 X95.739 Y78.486
G1 F900 X134.260 Y117.007 E677.98232
G0 F9000 X134.260 Y117.572
G1 F900 X95.739 Y79.051 E684.51955
G0 F9000 X95.739 Y79.617
G1 F900 X134.260 Y118.138 E691.05678
G0 F9000 X134.260 Y118.704
G1 F900 X95.739 Y80.183 E697.59401
G0 F9000 X95.739 Y80.748
G1 F900 X134.260 Y119.269 E704.13124
G0 F9000 X134.260 Y119.835
G1 F900 X95.739 Y81.314 E710.66847
G0 F9000 X95.739 Y81.880
G1 F900 X134.260 Y120.401 E717.20570
G0 F9000 X134.260 Y120.966
G1 F900 X95.739 Y82.445 E723.74294
G0 F9000 X95.739 Y83.011
G1 F900 X134.260 Y121.532 E730.28017
G0 F9000 X134.260 Y122.098
G1 F900 X95.739 Y83.577 E736.81740
G0 F9000 X95.739 Y84.142
G1 F900 X134.260 Y122.663 E743.35463
G0 F9000 X134.260 Y123.229
G1 F900 X95.739 Y84.708 E749.89186
G0 F9000 X95.739 Y85.274
G1 F900 X134.260 Y123.795 E756.42909
G0 F9000 X134.260 Y124.360
G1 F900 X95.739 Y85.839 E762.96632
G0 F9000 X95.739 Y86.405
G1 F900 X134.260 Y124.926 E769.50355
G0 F9000 X134.260 Y125.492
G1 F900 X95.739 Y86.971 E776.04078
G0 F9000 X95.739 Y87.536
G1 F900 X134.260 Y126.058 E782.57809
G0 F9000 X134.260 Y126.623
G1 F900 X95.739 Y88.102 E789.11532
G0 F9000 X95.739 Y88.668
G1 F900 X134.260 Y127.189 E795.65256
G0 F9000 X134.260 Y127.755
G1 F900 X95.739 Y89.234 E802.18979
G0 F9000 X95.739 Y89.799
G1 F900 X134.260 Y128.320 E808.72702
G0 F9000 X134.260 Y128.886
G1 F900 X95.739 Y90.365 E815.26425
G0 F9000 X95.739 Y90.931
G1 F900 X134.260 Y129.452 E821.80148
G0 F9000 X134.260 Y130.017
G1 F900 X95.739 Y91.496 E828.33871
G0 F9000 X95.739 Y92.062
G1 F900 X134.260 Y130.583 E834.87594
G0 F9000 X134.260 Y131.149
G1 F900 X95.739 Y92.628 E841.41317
G0 F9000 X95.739 Y93.193
G1 F900 X134.260 Y131.714 E847.95040
G0 F9000 X134.260 Y132.280
G1 F900 X95.739 Y93.759 E854.48763
G0 F9000 X95.739 Y94.325
G1 F900 X134.260 Y132.846 E861.02486
G0 F9000 X134.260 Y133.411
G1 F900 X95.739 Y94.890 E867.56209
G0 F9000 X95.739 Y95.456
G1 F900 X134.260 Y133.977 E874.09932
G0 F9000 X134.260 Y134.543
G1 F900 X95.739 Y96.022 E880.63655
G0 F9000 X95.739 Y96.587
G1 F900 X134.260 Y135.109 E887.17387
G0 F9000 X134.260 Y135.674
G1 F900 X95.739 Y97.153 E893.71110
G0 F9000 X95.739 Y97.719
G1 F900 X134.260 Y136.240 E900.24833
G0 F9000 X134.260 Y136.806
G1 F900 X95.739 Y98.285 E906.78556
G0 F9000 X95.739 Y98.850
G1 F900 X134.260 Y137.371 E913.32279
G0 F9000 X134.260 Y137.937
G1 F900 X95.739 Y99.416 E919.86002
G0 F9000 X95.739 Y99.982
G1 F900 X134.260 Y138.503 E926.39725
G0 F9000 X134.260 Y139.068
G1 F900 X95.739 Y100.547 E932.93448
G0 F9000 X95.739 Y101.113
G1 F900 X134.260 Y139.634 E939.47171
G0 F9000 X134.260 Y140.200
G1 F900 X95.739 Y101.679 E946.00894
G0 F9000 X95.739 Y102.244
G1 F900 X134.260 Y140.765 E952.54617
G0 F9000 X134.260 Y141.331
G1 F900 X95.739 Y102.810 E959.08340
G0 F9000 X95.739 Y103.376
G1 F900 X134.260 Y141.897 E965.62063
G0 F9000 X134.260 Y142.462
G1 F900 X95.739 Y103.941 E972.15786
G0 F9000 X95.739 Y104.507
G1 F900 X134.260 Y143.028 E978.69509
G0 F9000 X134.260 Y143.594
G1 F900 X95.739 Y105.073 E985.23232
G0 F9000 X95.739 Y105.638
G1 F900 X134.260 Y144.159 E991.76955
G0 F9000 X134.260 Y144.725
G1 F900 X95.739 Y106.204 E998.30679
G0 F9000 X95.739 Y106.770
G1 F900 X134.260 Y145.291 E1004.84402
G0 F9000 X134.260 Y145.857
G1 F900 X95.739 Y107.335 E1011.38133
G0 F9000 X95.739 Y107.901
G1 F900 X134.260 Y146.422 E1017.91856
G0 F9000 X134.260 Y146.988
G1 F900 X95.739 Y108.467 E1024.45579
G0 F9000 X95.739 Y109.033
G1 F900 X134.260 Y147.554 E1030.99302
G0 F9000 X134.260 Y148.119
G1 F900 X95.739 Y109.598 E1037.53025
G0 F9000 X95.739 Y110.164
G1 F900 X134.260 Y148.685 E1044.06748
G0 F9000 X134.260 Y149.251
G1 F900 X95.739 Y110.730 E1050.60471
G0 F9000 X95.739 Y111.295
G1 F900 X134.260 Y149.816 E1057.14194
G0 F9000 X134.260 Y150.382
G1 F900 X95.739 Y111.861 E1063.67917
G0 F9000 X95.739 Y112.427
G1 F900 X134.260 Y150.948 E1070.21641
G0 F9000 X134.260 Y151.513
G1 F900 X95.739 Y112.992 E1076.75364
G0 F9000 X95.739 Y113.558
G1 F900 X134.260 Y152.079 E1083.29087
G0 F9000 X134.260 Y152.645
G1 F900 X95.739 Y114.124 E1089.82810
G0 F9000 X95.739 Y114.689
G1 F900 X134.260 Y153.210 E1096.36533
G0 F9000 X134.260 Y153.776
G1 F900 X95.739 Y115.255 E1102.90256
G0 F9000 X95.739 Y115.821
G1 F900 X134.260 Y154.342 E1109.43979
G0 F9000 X134.260 Y154.908
G1 F900 X95.739 Y116.386 E1115.97710
G0 F9000 X95.739 Y116.952
G1 F900 X134.260 Y155.473 E1122.51433
G0 F9000 X134.260 Y156.039
G1 F900 X95.739 Y117.518 E1129.05156
G0 F9000 X95.739 Y118.084
G1 F900 X134.260 Y156.605 E1135.58879
G0 F9000 X134.260 Y157.170
G1 F900 X95.739 Y118.649 E1142.12603
G0 F9000 X95.739 Y119.215
G1 F900 X134.260 Y157.736 E1148.66326
G0 F9000 X134.260 Y158.302
G1 F900 X95.739 Y119.781 E1155.20049
G0 F9000 X95.739 Y120.346
G1 F900 X164.260 Y188.867 E1166.82889
G0 F9000 X164.260 Y189.433
G1 F900 X95.739 Y120.912 E1178.45728
G0 F9000 X95.739 Y121.478
G1 F900 X164.260 Y189.998 E1190.08560
G0 F9000 X164.260 Y190.564
G1 F900 X95.739 Y122.043 E1201.71400
G0 F9000 X95.739 Y122.609
G1 F900 X164.260 Y191.130 E1213.34240
G0 F9000 X164.260 Y191.695
G1 F900 X95.739 Y123.175 E1224.97071
G0 F9000 X95.739 Y123.740
G1 F900 X164.260 Y192.261 E1236.59911
G0 F9000 X164.260 Y192.827
G1 F900 X95.739 Y124.306 E1248.22751
G0 F9000 X95.739 Y124.872
G1 F900 X164.260 Y193.392 E1259.85583
G0 F9000 X164.260 Y193.958
G1 F900 X95.739 Y125.437 E1271.48422
G0 F9000 X95.739 Y126.003
G1 F900 X164.260 Y194.524 E1283.11262
G0 F9000 X164.260 Y195.090
G1 F900 X95.739 Y126.569 E1294.74102
G0 F9000 X95.739 Y127.134
G1 F900 X164.260 Y195.655 E1306.36942
G0 F9000 X164.260 Y196.221
G1 F900 X95.739 Y127.700 E1317.99782
G0 F9000 X95.739 Y128.266
G1 F900 X164.260 Y196.787 E1329.62622
G0 F9000 X164.166 Y197.259
G1 F900 X95.739 Y128.832 E1341.23867
G0 F9000 X95.739 Y129.397
G1 F900 X163.601 Y197.259 E1352.75523
G0 F9000 X163.035 Y197.259
G1 F900 X95.739 Y129.963 E1364.17574
G0 F9000 X95.739 Y130.529
G1 F900 X162.469 Y197.259 E1375.50020
G0 F9000 X161.904 Y197.259
G1 F900 X95.739 Y131.094 E1386.72877
G0 F9000 X95.739 Y131.660
G1 F900 X161.338 Y197.259 E1397.86129
G0 F9000 X160.772 Y197.259
G1 F900 X95.739 Y132.226 E1408.89776
G0 F9000 X95.739 Y132.791
G1 F900 X160.207 Y197.259 E1419.83834
G0 F9000 X164.260 Y188.301
G1 F900 X134.698 Y158.739 E1424.85518
G0 F9000 X135.263 Y158.739
G1 F900 X164.260 Y187.736 E1429.77613
G0 F9000 X164.260 Y187.170
G1 F900 X135.829 Y158.739 E1434.60103
G0 F9000 X136.395 Y158.739
G1 F900 X164.260 Y186.604 E1439.32988
G0 F9000 X164.260 Y186.039
G1 F900 X136.960 Y158.739 E1443.96284
G0 F9000 X137.526 Y158.739
G1 F900 X164.260 Y185.473 E1448.49975
G0 F9000 X164.260 Y184.907
G1 F900 X138.092 Y158.739 E1452.94061
G0 F9000 X138.657 Y158.739
G1 F900 X164.260 Y184.342 E1457.28558
G0 F9000 X164.260 Y183.776
G1 F900 X139.223 Y158.739 E1461.53450
G0 F9000 X139.789 Y158.739
G1 F900 X164.260 Y183.210 E1465.68737
G0 F9000 X164.260 Y182.644
G1 F900 X140.355 Y158.739 E1469.74418
G0 F9000 X140.920 Y158.739
G1 F900 X164.260 Y182.079 E1473.70511
G0 F9000 X164.260 Y181.513
G1 F900 X141.486 Y158.739 E1477.56999
G0 F9000 X142.052 Y158.739
G1 F900 X164.260 Y180.947 E1481.33881
G0 F9000 X164.260 Y180.382
G1 F900 X142.617 Y158.739 E1485.01175
G0 F9000 X143.183 Y158.739
G1 F900 X164.260 Y179.816 E1488.58863
G0 F9000 X164.260 Y179.250
G1 F900 X143.749 Y158.739 E1492.06947
G0 F9000 X144.314 Y158.739
G1 F900 X164.260 Y178.685 E1495.45441
G0 F9000 X164.260 Y178.119
G1 F900 X144.880 Y158.739 E1498.74331
G0 F9000 X145.446 Y158.739
G1 F900 X164.260 Y177.553 E1501.93615
G0 F9000 X164.260 Y176.988
G1 F900 X146.011 Y158.739 E1505.03311
G0 F9000 X146.577 Y158.739
G1 F900 X164.260 Y176.422 E1508.03401
G0 F9000 X164.260 Y175.856
G1 F900 X147.143 Y158.739 E1510.93887
G0 F9000 X147.708 Y158.739
G1 F900 X164.260 Y175.291 E1513.74783
G0 F9000 X164.260 Y174.725
G1 F900 X148.274 Y158.739 E1516.46075
G0 F9000 X148.840 Y158.739
G1 F900 X164.260 Y174.159 E1519.07761
G0 F9000 X164.260 Y173.594
G1 F900 X149.406 Y158.739 E1521.59850
G0 F9000 X149.971 Y158.739
G1 F900 X164.260 Y173.028 E1524.02342
G0 F9000 X164.260 Y172.462
G1 F900 X150.537 Y158.739 E1526.35229
G0 F9000 X151.103 Y158.739
G1 F900 X164.260 Y171.896 E1528.58511
G0 F9000 X164.260 Y171.331
G1 F900 X151.668 Y158.739 E1530.72204
G0 F9000 X152.234 Y158.739
G1 F900 X164.260 Y170.765 E1532.76292
G0 F9000 X164.260 Y170.199
G1 F900 X152.800 Y158.739 E1534.70775
G0 F9000 X153.365 Y158.739
G1 F900 X164.260 Y169.634 E1536.55669
G0 F9000 X164.260 Y169.068
G1 F900 X153.931 Y158.739 E1538.30958
G0 F9000 X154.497 Y158.739
G1 F900 X164.260 Y168.502 E1539.96642
G0 F9000 X164.260 Y167.937
G1 F900 X155.062 Y158.739 E1541.52737
G0 F9000 X155.628 Y158.739
G1 F900 X164.260 Y167.371 E1542.99227
G0 F9000 X164.260 Y166.805
G1 F900 X156.194 Y158.739 E1544.36112
G0 F9000 X156.759 Y158.739
G1 F900 X164.260 Y166.240 E1545.63408
G0 F9000 X164.260 Y165.674
G1 F900 X157.325 Y158.739 E1546.81099
G0 F9000 X157.891 Y158.739
G1 F900 X164.260 Y165.108 E1547.89184
G0 F9000 X164.260 Y164.543
G1 F900 X158.456 Y158.739 E1548.87681
G0 F9000 X159.022 Y158.739
G1 F900 X164.260 Y163.977 E1549.76573
G0 F9000 X164.260 Y163.411
G1 F900 X159.588 Y158.739 E1550.55860
G0 F9000 X160.154 Y158.739
G1 F900 X164.260 Y162.845 E1551.25541
G0 F9000 X164.260 Y162.280
G1 F900 X160.719 Y158.739 E1551.85633
G0 F9000 X161.285 Y158.739
G1 F900 X164.260 Y161.714 E1552.36121
G0 F9000 X164.260 Y161.148
G1 F900 X161.851 Y158.739 E1552.77003
G0 F9000 X162.416 Y158.739
G1 F900 X164.260 Y160.583 E1553.08297
G0 F9000 X164.260 Y160.017
G1 F900 X162.982 Y158.739 E1553.29985
G0 F9000 X163.548 Y158.739
G1 F900 X164.260 Y159.451 E1553.42068
G0 F9000 X164.260 Y158.886
G1 F900 X164.113 Y158.739 E1553.44563
G0 F9000 X159.641 Y197.259
G1 F900 X95.739 Y133.357 E1564.29016
G0 F9000 X95.739 Y133.923
G1 F900 X159.075 Y197.259 E1575.03863
G0 F9000 X158.510 Y197.259
G1 F900 X95.739 Y134.488 E1585.69122
G0 F9000 X95.739 Y135.054
G1 F900 X157.944 Y197.259 E1596.24776
G0 F9000 X157.378 Y197.259
G1 F900 X95.739 Y135.620 E1606.70825
G0 F9000 X95.739 Y136.185
G1 F900 X156.812 Y197.259 E1617.07276
G0 F9000 X156.247 Y197.259
G1 F900 X95.739 Y136.751 E1627.34131
G0 F9000 X95.739 Y137.317
G1 F900 X155.681 Y197.259 E1637.51381
G0 F9000 X155.115 Y197.259
G1 F900 X95.739 Y137.882 E1647.59033
G0 F9000 X95.739 Y138.448
G1 F900 X154.550 Y197.259 E1657.57089
G0 F9000 X153.984 Y197.259
G1 F900 X95.739 Y139.014 E1667.45540
G0 F9000 X95.739 Y139.580
G1 F900 X153.418 Y197.259 E1677.24385
G0 F9000 X152.853 Y197.259
G1 F900 X95.739 Y140.145 E1686.93641
G0 F9000 X95.739 Y140.711
G1 F900 X152.287 Y197.259 E1696.53293
G0 F9000 X151.721 Y197.259
G1 F900 X95.739 Y141.277 E1706.03339
G0 F9000 X95.739 Y141.842
G1 F900 X151.156 Y197.259 E1715.43796
G0 F9000 X150.590 Y197.259
G1 F900 X95.739 Y142.408 E1724.74649
G0 F9000 X95.739 Y142.974
